!!!OTL: DIE BLUMEN AUF DEM FELDE
!!!ARE: Europa, Mitteleuropa, Deutschland, Hessen, Giessen, Rabenau
!!!SCT: E0734
!!!YEM: Copyright 1995, estate of Helmut Schaffrath.
**kern
*ICvox
*Ivox
*M4/4
*k[f#]
*G:
{4d
=1
4g
4g
4b
4b
=2
2dd
4b}
{4dd
=3
4ee
4dd
2cc
=4
2.b
8r}
{8dd
=5
4cc
4b
4a
4cc
=6
4b
4a
4g
8r}
{8a
=7
4b
4cc
4dd
4cc
=8
2b
2a
=9
2g
4r}
==
!!!AGN: Liebes - Lied, Leid, Klage, Tod
!!!ONB: ESAC (Essen Associative Code) Database: ERK2
!!!AMT: simple quadruple
!!!AIN: vox
!!!EED: Helmut Schaffrath
!!!EEV: 1.0
*-
